X:198 
T:Tailor's Twist (hornpipe), The 
B:CRE3.213 (Casadh an TÃÂÃÂÃÂÃÂ¡illiÃÂÃÂÃÂÃÂºra)
F:file ID: cre.3/198tailor
R:hornpipe
L:1/8
Q:150
M:C
K:D
FE|DAFD ADdA|Bged ceag|fedc BGed|cABc AGFE|
DAFD ADdA|Bged ceag|fedc BGec|dfec d2:|
fg|abaf defg|bagf eAce|gfgd cdef|gafg egfe|
d2 (3gfe dDFA|Bged ceag|fedc BGec|dfec d2:|

%%%

